X:1
T: Téli-nyári laboda
O: Trunk (Bákó), ?, 1932
Q: 1/4=120
L:1/4
K:G
B/A/B/A/ B/A3/4 d3/4 | 
B/G/F/F/ E/E3/4 D3/4 | 
A/A/A/A/ | B/ A3/4 d3/4 |
B/G/G/F/ | E/E3/4 D3/4 
G/G/F/F/ | E/E3/4 F3/4 |
G/G/F/F/ | E/E3/4 D3/4 |

